logos/eta.svg

<?xml version="1.0" encoding="UTF-8"?>
<svg width="512px" height="226px" viewBox="0 0 512 226" version="1.1" xmlns="http://www.w3.org/2000/svg" preserveAspectRatio="xMidYMid">
    <title>eta</title>
    <g>
        <path d="M92.5151923,41.1178617 C102.549909,41.1178617 111.850378,42.5863568 120.416599,45.523347 C129.22757,48.2155881 137.304293,52.3763242 144.646769,58.0055555 C151.744495,63.6347868 158.107974,69.875891 163.737205,76.7288682 C169.611186,83.5818454 174.750919,90.924321 179.156404,98.756295 L57.6384333,164.471451 L43.3206059,138.772787 L129.961818,89.5782005 L128.493323,88.8439529 L128.493323,88.8439529 C128.003824,88.3544546 127.514326,87.7425816 127.024827,87.008334 L125.189209,85.1727152 C124.69971,84.4384676 124.087837,83.70422 123.35359,82.9699725 C122.619342,82.4804741 121.76272,81.9909757 120.783723,81.5014774 L118.580981,79.2987347 L118.580981,79.2987347 L115.64399,77.8302396 L115.64399,77.8302396 C114.664994,77.095992 113.563622,76.4841191 112.339876,75.9946207 C109.990284,74.8198246 107.18957,73.9833698 103.937735,73.4852562 L103.528906,73.4247542 C100.347166,72.9352559 96.6759284,72.6905067 92.5151923,72.6905067 C82.969974,72.6905067 74.5261271,74.403751 67.1836515,77.8302396 C60.0859251,81.2567282 54.0895701,86.2740865 49.1945864,92.8823145 C44.2996026,99.4905425 40.6283649,106.465894 38.180873,113.80837 C35.7333811,121.150845 34.5096352,128.73807 34.5096352,136.570044 L34.5096352,137.671416 C34.5096352,144.769142 35.7333811,151.622119 38.180873,158.230347 C40.873114,164.593826 44.6667264,170.712556 49.5617101,176.586536 C54.4566939,182.460517 60.4530489,186.866002 67.5507753,189.802992 C74.8932509,192.739982 83.2147232,194.208477 92.5151923,194.208477 C102.549909,194.208477 110.871381,193.107106 117.479609,190.904363 C124.332586,188.456872 129.472319,184.908008 132.898808,180.257774 C136.325297,175.36279 139.384661,169.611184 142.076902,163.002956 C144.922112,156.601235 147.422784,149.395595 149.578919,141.386034 L149.786502,140.608406 L149.786502,140.241282 L150.153626,139.874158 L150.153626,139.507034 L182.093394,141.342653 L182.093394,142.811148 C182.093394,143.055898 182.215769,143.300647 182.460518,143.545396 L182.460518,146.84951 C182.460518,147.094259 182.582893,147.339008 182.827642,147.583758 L182.827642,149.419376 C182.827642,151.37737 182.705267,153.457738 182.460518,155.660481 C182.215769,157.618474 181.848645,159.698842 181.359147,161.901585 C181.114398,162.880582 180.747274,163.981953 180.257775,165.205699 C180.013026,166.429445 179.768277,167.530816 179.523528,168.509813 L178.055033,172.181051 C177.810284,173.160047 177.44316,174.261419 176.953661,175.485165 C174.016671,181.603894 170.100684,187.600249 165.2057,193.47423 C160.310717,199.34821 154.314362,204.855067 147.216635,209.9948 C140.363658,215.134533 132.286935,218.928145 122.986466,221.375637 C113.930746,224.067878 103.773655,225.413999 92.5151923,225.413999 C79.5434854,225.413999 67.5507753,223.456005 56.5370619,219.540018 C45.5233486,215.379282 35.6110065,209.138178 26.8000359,200.816705 C17.744316,192.250484 11.0137134,182.705266 6.60822802,172.181051 C2.20274267,161.412087 -1.13686838e-13,149.541751 -1.13686838e-13,136.570044 C-1.13686838e-13,122.86409 1.83561889,110.749005 5.50685668,100.22479 C9.17809447,89.7005751 14.6849512,80.6448552 22.0274267,73.0576305 C29.3699023,65.4704057 37.0795017,59.2293014 45.1562248,54.3343177 C53.2329479,49.439334 61.6767948,45.8904708 70.4877655,43.6877281 C71.4667623,43.442979 72.3233844,43.3206044 73.057632,43.3206044 L75.9946222,42.5863568 L78.5644887,42.5863568 L81.5014789,41.8521093 C83.4594724,41.6073601 85.2950913,41.4849855 87.0083356,41.4849855 C88.9663291,41.2402363 90.801948,41.1178617 92.5151923,41.1178617 Z M422.054675,41.1178617 C436.494877,41.1178617 449.344209,43.0758552 460.602672,46.9918422 C471.861134,50.9078291 481.283977,56.7818096 488.871202,64.6137835 C496.703176,72.4457575 502.454782,80.7672298 506.12602,89.5782005 C510.042007,98.144422 512,107.077767 512,116.378236 L512,219.540018 L477.123241,219.540018 L477.123241,118.213855 C477.123241,112.829373 476.02187,107.567266 473.819127,102.427533 C471.861134,97.0430507 468.801769,92.0256924 464.641033,87.3754578 C460.480297,82.4804741 454.606317,78.8092363 447.019092,76.3617445 C439.431867,73.9142526 430.253773,72.6905067 419.484809,72.6905067 C417.771565,72.6905067 415.935946,72.8128813 413.977952,73.0576305 C412.264708,73.3023796 410.306714,73.6695034 408.103972,74.1590018 C405.901229,74.403751 403.698486,74.8932493 401.495744,75.6274969 C399.293001,76.3617445 397.090258,77.3407412 394.887516,78.5644871 C390.971529,80.2777314 387.177916,82.7252233 383.506678,85.9069627 C379.835441,88.8439529 376.286577,92.3928161 372.860089,96.5535523 C369.678349,100.469539 367.108483,105.364523 365.15049,111.238503 C363.192495,116.867735 361.96875,123.353588 361.479252,130.696064 C361.479252,140.486031 362.825372,149.052253 365.517613,156.394728 C368.209854,163.492455 372.248216,169.48881 377.632698,174.383793 C383.261929,179.034028 389.013535,182.82764 394.887516,185.764631 C401.006245,188.456872 407.369724,190.170116 413.977952,190.904363 L415.813571,190.904363 C416.30307,191.149113 416.670193,191.271487 416.914942,191.271487 L422.054675,191.271487 C424.991665,191.271487 427.683906,191.149113 430.131398,190.904363 C432.823639,190.414865 435.393506,189.680618 437.840998,188.701621 C439.064744,188.212122 440.166115,187.722624 441.145112,187.233126 L444.81635,185.764631 C445.795345,185.030383 446.896718,184.296135 448.120464,183.561888 C449.344209,182.82764 450.445581,181.971018 451.424578,180.992021 C452.648323,180.257774 453.749695,179.401152 454.728692,178.422155 C455.952437,177.198409 457.176183,176.097038 458.399929,175.118041 C459.623675,173.894295 460.847421,172.792924 462.071167,171.813927 L465.742404,168.142689 L465.742404,208.159181 C465.524849,208.594291 465.307294,208.932709 465.089739,209.174437 L465.008156,209.260552 L465.008156,209.627676 C462.071167,211.58567 459.011802,213.421289 455.830063,215.134533 C452.648323,216.603028 449.344209,217.949148 445.917721,219.172894 C442.491232,220.151891 438.330496,220.886139 433.435512,221.375637 C428.540529,222.109885 422.911297,222.477008 416.547819,222.477008 L411.77521,222.477008 C400.516747,222.477008 389.992532,220.519015 380.202564,216.603028 C370.657346,212.442292 361.846375,206.201188 353.769651,197.879715 C345.692928,189.313494 339.574199,179.523526 335.413462,168.509813 C331.497475,157.25135 329.539482,144.646767 329.539482,130.696064 C329.539482,118.458604 331.497475,107.077767 335.413462,96.5535523 C339.329449,86.0293373 345.20343,76.3617445 353.035404,67.5507738 C360.867378,58.7398031 370.534972,52.1315751 382.038183,47.7260897 C393.541395,43.3206044 406.880226,41.1178617 422.054675,41.1178617 Z M253.900511,0 L253.900511,43.3206044 L320.717039,43.3206044 L320.717039,74.8932493 L253.900511,74.8932493 L253.900511,164.471451 C253.900511,167.89794 254.14526,170.957305 254.634758,173.649546 C255.124257,176.341787 255.858504,178.911653 256.837501,181.359145 C257.816498,183.806637 259.896866,185.642256 263.078605,186.866002 C266.505094,187.844999 271.155328,188.334497 277.029309,188.334497 L317.780048,187.600249 L317.780048,219.540018 L272.2567,219.540018 L271.889576,219.907142 L269.31971,219.907142 C260.998237,219.907142 253.778136,218.683396 247.659407,216.235904 C241.540677,213.788412 236.523319,209.9948 232.607332,204.855067 C228.691345,199.715334 225.63198,194.208477 223.429237,188.334497 C221.471244,182.460517 220.247498,176.341787 219.757999,169.978308 C219.51325,169.48881 219.390876,168.999311 219.390876,168.509813 L219.390876,0 L253.900511,0 Z" fill="#0C022F"></path>
    </g>
</svg>

<svg preserveAspectRatio="xMidYMid" viewBox="0 0 512 226" xmlns="http://www.w3.org/2000/svg">
  <path fill="#0C022F" d="M92.515 41.118c10.035 0 19.335 1.468 27.902 4.405 8.81 2.693 16.887 6.853 24.23 12.483 7.097 5.629 13.461 11.87 19.09 18.723a136.909 136.909 0 0 1 15.42 22.027l-121.52 65.715-14.317-25.698 86.64-49.195-1.468-.734c-.49-.49-.979-1.101-1.468-1.836l-1.836-1.835a14.587 14.587 0 0 0-1.835-2.203 24.077 24.077 0 0 0-2.57-1.469L118.58 79.3l-2.937-1.469a14.366 14.366 0 0 0-3.304-1.835c-2.35-1.175-5.15-2.012-8.402-2.51l-.41-.06c-3.18-.49-6.852-.734-11.013-.734-9.545 0-17.989 1.713-25.331 5.14-7.098 3.426-13.094 8.443-17.99 15.051-4.894 6.609-8.566 13.584-11.013 20.926-2.448 7.343-3.671 14.93-3.671 22.762v1.101c0 7.098 1.223 13.951 3.67 20.56 2.693 6.363 6.487 12.482 11.382 18.356 4.895 5.874 10.891 10.279 17.989 13.216 7.342 2.937 15.664 4.405 24.964 4.405 10.035 0 18.356-1.1 24.965-3.304 6.853-2.447 11.992-5.996 15.419-10.646 3.426-4.895 6.486-10.647 9.178-17.255 2.845-6.402 5.346-13.607 7.502-21.617l.208-.778v-.367l.367-.367v-.367l31.94 1.836v1.468c0 .245.122.49.367.734v3.305c0 .244.122.489.367.734v1.835c0 1.958-.123 4.039-.367 6.241a67.411 67.411 0 0 1-1.102 6.242c-.245.979-.612 2.08-1.101 3.304a71.734 71.734 0 0 1-.734 3.304l-1.469 3.671c-.245.979-.612 2.08-1.101 3.304-2.937 6.119-6.853 12.115-11.748 17.99-4.895 5.873-10.892 11.38-17.99 16.52-6.852 5.14-14.93 8.933-24.23 11.38-9.055 2.693-19.212 4.039-30.47 4.039-12.973 0-24.965-1.958-35.979-5.874-11.014-4.16-20.926-10.402-29.737-18.723-9.056-8.567-15.786-18.112-20.192-28.636C2.203 161.412 0 149.541 0 136.57c0-13.706 1.836-25.821 5.507-36.345 3.671-10.524 9.178-19.58 16.52-27.167 7.343-7.588 15.053-13.829 23.13-18.724 8.076-4.895 16.52-8.444 25.33-10.646.98-.245 1.836-.367 2.57-.367l2.938-.735h2.57l2.936-.734a44.534 44.534 0 0 1 5.507-.367 44.534 44.534 0 0 1 5.507-.367Zm329.54 0c14.44 0 27.29 1.958 38.548 5.874 11.258 3.916 20.681 9.79 28.268 17.622 7.832 7.832 13.584 16.153 17.255 24.964 3.916 8.566 5.874 17.5 5.874 26.8V219.54h-34.877V118.214c0-5.385-1.101-10.647-3.304-15.786-1.958-5.385-5.017-10.402-9.178-15.053-4.16-4.895-10.035-8.566-17.622-11.013-7.587-2.448-16.765-3.671-27.534-3.671-1.713 0-3.55.122-5.507.367-1.713.244-3.671.612-5.874 1.101a32.052 32.052 0 0 0-6.608 1.468c-2.203.735-4.406 1.714-6.608 2.937-3.916 1.714-7.71 4.161-11.381 7.343-3.672 2.937-7.22 6.486-10.647 10.647-3.182 3.916-5.752 8.81-7.71 14.685-1.958 5.629-3.181 12.115-3.67 19.457 0 9.79 1.345 18.356 4.038 25.699 2.692 7.097 6.73 13.094 12.115 17.989 5.629 4.65 11.38 8.444 17.255 11.38a64.943 64.943 0 0 0 19.09 5.14h1.836c.49.245.856.367 1.1.367h5.14c2.938 0 5.63-.122 8.077-.367a39.937 39.937 0 0 0 7.71-2.202 43.766 43.766 0 0 0 3.304-1.469l3.671-1.468a38.685 38.685 0 0 1 3.304-2.203 17.068 17.068 0 0 0 3.305-2.57 17.068 17.068 0 0 0 3.304-2.57 44.706 44.706 0 0 1 3.67-3.304 44.706 44.706 0 0 1 3.672-3.304l3.671-3.671v40.016c-.217.435-.435.774-.652 1.015l-.082.087v.367a113.782 113.782 0 0 1-9.178 5.507 119.759 119.759 0 0 1-9.912 4.038c-3.427.979-7.588 1.713-12.482 2.203-4.895.734-10.525 1.101-16.888 1.101h-4.773c-11.258 0-21.782-1.958-31.572-5.874-9.546-4.16-18.357-10.402-26.433-18.723-8.077-8.567-14.196-18.356-18.357-29.37-3.916-11.259-5.874-23.863-5.874-37.814 0-12.237 1.958-23.618 5.874-34.142 3.916-10.525 9.79-20.192 17.622-29.003 7.832-8.811 17.5-15.42 29.003-19.825 11.503-4.405 24.842-6.608 40.017-6.608ZM253.9 0v43.32h66.816v31.573H253.9v89.578c0 3.427.244 6.486.734 9.179a39.937 39.937 0 0 0 2.203 7.71c.978 2.447 3.059 4.282 6.24 5.506 3.427.979 8.077 1.468 13.951 1.468l40.751-.734v31.94h-45.523l-.367.367h-2.57c-8.322 0-15.542-1.224-21.66-3.671-6.12-2.448-11.137-6.241-15.053-11.38-3.916-5.14-6.975-10.648-9.178-16.522-1.958-5.873-3.182-11.992-3.671-18.356a3.258 3.258 0 0 1-.367-1.468V0h34.51Z"/>
</svg>
